X:63
T: WO MUTH UND KRAFT IN DEUTSCHER SEELE FLAMMEN
N: B0548
O: Europa, Mitteleuropa, Deutschland
R: Studenten -, Burschenschafts - Lied, national
M: 4/4
L: 1/16
K: C
G,2E3C | G,6G,2G,3G,A,3G, | G,3F,F,4z3
F,G,3F, | E,6G,2A,3A,D3C | C4B,4z3
G,E3C | G,6G,2G,3G,A,3G, | ^F,3A,D4z3
DD3C | B,4C3A,G,3G,B,3A, | G,8z4
G,4 | D6B,2C3B,C2E2 | D4G,4z4
G,4 | E6D2C6E2 | D4G,4z2
G,2A,3B, | C6D2E3DC3B, | A,4F4z2
F2E3D | C6C2D3CD3E | C8z2

@@@ Tune index: 2281
